X: 42678
T: Whistled No. 1
R: reel
M: 4/4
K: Edorian
[M:3/2]BE E/E/E eBdA BedA|BE E/E/E eBdA BedA|BE E/E/E eBdA BedA|G3A BdBA GFED|
BE E/E/E eBdA BedA|BE E/E/E dAeB BdcA|BE E/E/E eBdA BedA|G3A BdBA GFED||
M:C|
|:B,DED FAED|B,DED BGAF|B,DED FAED|1 B,<B,EB, FB,G2:|2 DB,A,B, DE F/E/D||
|:E/E/E BE EBAF|E/E/E BA FEED|E/E/E BE EBAF|ABGE FGFD|
EEBE EBAF|E/E/E Ad e2BA|A3B d3B|1 AFdB AFDF:|2 AFdB AFDA||

